!!!!SEGMENT: pl-kozmzk--mzk-m-346--001-017_walczynski-franciszek--cantantibus-organis-op-10-17-moderato.krn
!!!cenid: 18xx:2812
!!!COM: Walczyński, Franciszek
!!!COM-rismID: pe30021989
!!!CDT: ~1852-1937
!!!CNT: Polish
!!!GTL: Cantantibus organis op. 10
!!!OTL: 17. Moderato
!!!OMV: 017
!!!PDT: 1898
!!!AGN: Secular
!!!SMS-siglum: PL-KOZmzk
!!!SMS-shelfmark: mzk/m/346
!!!SMS-shelfwork: 001-017 G
!!!SMS-variant:
!!!SMS-altvar:
!!!NIFC-rismSourceID: 1001099615
!!!NIFC-rismChildID: 1001109087
!!!NIFC-islandoraID: pl-kozmzk:7453
!!!URL-pdf-islandora: https://repozytorium.nifc.pl/islandora/object/pl-kozmzk%3A7453/datastream/PDF/view
!!!URL-scan: https://polish.musicsources.pl/pl/lokalizacje/galeria/druki-muzyczne/7581 @EN{Scan on Polish Music Sources Website} @PL{Skany w portalu Dziedzictwo Muzyki Polskiej w otwartym dostępie}
!!!IIIF:
!!!ONB-nifc:
!!!OMD: Moderato.
!!!AIN: 1 empty 1 organ
!!!key:
**kern	**kern	**dynam
*part2	*part1	*part1
*staff2	*staff1	*
*Iorgan	*Iempty	*
*I"[Organo]	*	*
*clefF4	*clefG2	*
*k[f#c#]	*k[f#c#]	*
*D:	*D:	*
*M3/4	*M3/4	*
=1	=1	=1
(<8D\L	(>[2f#/	pp
8A\	.	.
8B\	.	.
8c#\	.	.
8d\	8f#/L]	.
8e\J	8g/J	.
=2	=2	=2
8f#>\L	8a/L	.
8g>\	8b/	.
8f#>\	8a/	.
8d>\	8f#/	.
8e>\	8g/	.
8c#>\J)	8e/J)	.
=3	=3	=3
!	!	!LO:DY:a:rj
(8d\L	(4f#/	fp
8c#\	.	.
8B\	8g/L	.
8A\	8a/	.
8G\	8b/	.
8F#\J	8a/J	.
=4	=4	=4
4E\	8g#X\L	<
.	8dd\	.
8F#\L	8cc#\	.
8G#X\	8b\J	.
8A\	4cc#\)	[[
8Gn\J)	.	.
=5	=5	=5
(4F#\	(8dd/L	p >
.	8a/	.
8G\L	8b/	.
8B\	16a/L	.
.	16g/J	.
8A\	8f#/	.
8AA\J	8e/J	.
=6	=6	=6
8D/L	2.d/)	.
8AA/	.	.
8FF#/	.	.
8AA/J	.	.
4DD/)	.	]
=7	=7	=7
!	!LO:TX:t=P:problem=pf się nie wyświetla	!
2.r	(8f#/L	pf
.	8g/	.
.	8f#/	.
.	8c#/	.
.	8d/	.
.	8B/J	.
=8	=8	=8
!LO:TX:t=P:problem=pf się nie wyświetla	!	!LO:DY:b=2:rj
(8F#\L	2A#X/	pf
8G\	.	.
8F#\	.	.
8C#\	.	.
8D\	8B/L	.
8BB\J	8d/J)	.
=9	=9	=9
2AA#X/	(8c#/L	.
.	8d/	.
.	8f#/	.
.	8e/	.
8BB/L	8d/	.
8D/J)	8B/J	.
=10	=10	=10
(8C#\L	2A#X/	.
8D\	.	.
8F#\	.	.
8E\	.	.
8D\	8B/L	.
8BB\J	8d/J)	.
!!LO:LB:g=original
=11	=11	=11
8AA\L	(8c#/L	<
16BB\L	16d/L	.
16C#\J	16e/J	.
8D\	8f#/	.
8E\	8g#X/	.
8F#\	8a/	.
8G#X\J)	8b/J)	[[
=12	=12	=12
(4A\	(8cc#\L	f
.	8dd\	.
4c#\	8cc#\	.
.	8a\	.
8e\L	8b\	.
8d\J	8g#X\J	.
=13	=13	=13
8c#\L	8a\L	.
8B\J	8b\	.
4A\	8cc#\	.
.	8dd\	.
4G#X\)	8ee\	.
.	8dd\J)	.
=14	=14	=14
(4A\	(8cc#\L	p
.	8dd\	.
4c#\	8cc#\	.
.	8a\	.
8e\L	8b\	.
8d\J	8g#X\J	.
=15	=15	=15
8c#\L	8a/L	>
8B\J	8b/	.
4A\	8a/	.
.	8gn/	.
4AA/)	8f#/	.
.	8e/J)	]]
=16	=16	=16
(8D'\L	(>[2f#/	pp
8A'\	.	.
8B'\	.	.
8c#'\	.	.
8d'\	8f#/L]	.
8e'\J)	8g/J	.
=17	=17	=17
(<8f#>'\L	8a/L	.
8g>'\	8b/	.
8f#>'\	8a/	.
8d>'\	8f#/	.
8e>'\	8g/	.
8c#>'\J)	8e/J)	.
=18	=18	=18
(8d\L	(4f#/	.
8c#\	.	.
8B\	8g/L	.
8A\	8a/	.
8G\	8b/	.
8F#\J	8a/J	.
=19	=19	=19
4E\	8g#X\L	<
.	8dd\	.
8F#\L	8cc#\	.
8G#X\	8b\J	.
8A\	4cc#\)	[[
8Gn\J)	.	.
=20	=20	=20
4F#\	(>8dd/L	>
.	8a/	.
8G\L	8b/	.
8B\	16a/L	.
.	16gn/J	.
8A\	8f#/	.
8AA\J	8e/J	]]
!!LO:LB:g=original
=21	=21	=21
(8D/L	2.d/)	>]
8AA/	.	.
8FF#/	.	.
8AA/J	.	.
4DD/)	.	.
=22	=22	=22
*^	*^	*
!LO:TX:b:i:t=Ped.	!	!	!	!
(2cn/	[2.D\	(8a/L	[2.d\	pp
.	.	8b/	.	.
.	.	8a/	.	.
.	.	8f#/	.	.
4B/	.	8a/	.	.
.	.	8g#X/J	.	.
=23	=23	=23	=23	=23
2B-X/	2.D\]	8gn/L	2.d\]	.
.	.	8a/	.	.
.	.	8g/	.	.
.	.	8e/	.	.
[4A/)	.	8g/	.	.
.	.	8f#/J	.	.
=24	=24	=24	=24	=24
2A/_	(2BB\	8f#/L	(2d#X\	.
.	.	8g/	.	.
.	.	8f#/	.	>
.	.	8d#/	.	.
8A/L]	4E\	8f#/	4B\)	.
8G/J	.	8e/J	.	.
=25	=25	=25	=25	=25
(8F#/L	2.AA\)	2d/	[2A\	] pp
8G/	.	.	.	.
8F#/	.	.	.	.
8BB/J	.	.	.	.
4C#/)	.	4e/)	8A\L]	.
.	.	.	8G\J	.
=26	=26	=26	=26	=26
(<8D/L	[2.DD\	[2.d/	([2F#\	.
8E/	.	.	.	.
8D/	.	.	.	.
8AA/	.	.	.	.
8Cn/	.	.	8F#\L]	.
8BB/J)	.	.	[8G\J)	.
=27	=27	=27	=27	=27
2.BB-X/	2.DD\_	2.d/_>	(8G</L]	.
.	.	.	8A</	.
.	.	.	8G</	.
.	.	.	8D</	.
.	.	.	8E</	.
.	.	.	8G</J	.
=28	=28	=28	=28	=28
2.ryy	2.DD\_	2.d/_>	8F#</L 8AA</	.
.	.	.	8A</ 8Cn</	.
.	.	.	8G#X</ 8BB</	.
.	.	.	8Gn</ 8BB-X</	.
.	.	.	8F#</ 8AA</	.
.	.	.	8E</J 8GG</	.
=29	=29	=29	=29	=29
!	!	!	!	!LO:HP:a
8AA/L	2.DD\_	2.d/_>	[2.F#</ 2.AA</	pp <
!LO:TX:i:t=rall.	!	!	!	!
8BBn/	.	.	.	.
8AA/	.	.	.	.
8FF#/	.	.	.	.
!	!	!	!	!LO:HP:a
8AA/	.	.	.	[ >
8BB/J	.	.	.	.
=30	=30	=30	=30	=30
2.ryy	4DD\]	4d/]	4F#</]) 4AA</	.
.	4r	4r	4r	]
.	4r	4r	4r	.
*v	*v	*	*	*
*	*v	*v	*
==	==	==
*-	*-	*-
!!!system-decoration: {(s1,s2)}
!!!EED: Andrzej Borzym
!!!EEV: 2021-08-09
!!!RDF**kern: > = above
!!!RDF**kern: < = below
!!!ENC: Krzysztof Stępień
!!!END: 2021-07-27
!!!YEC: Copyright 2022 Narodowy Instytut Fryderyka Chopina (https://polishscores.org)
!!!YEM: License CC-BY-4.0 (https://creativecommons.org/licenses/by/4.0)
